X: 6
T: The Cook In The Kitchen
R: jig
M: 6/8
L: 1/8
K: Gmaj
|: E | DG{A}G {B}GAG | FDE =F3 | DGG GFG | A2 d cAG |
DGG GAG | FDE =F2 d | cAG FGA | BGF G2 :|
|: A | ~B3 BAG | .A.c.A .AGF | ~G3 GFG | A.d.d cAG |A
~B3 BAG | ~A3 A2 d | cAG FGA | BGF G2 :|
|: B | d2 e f2 g | a2 g fed | cAG FGA | ~B3 dBG |
d2 e f2 g | a2 g fed | cAG FGA | BGF G2 :|


Tune 808	Setting 13958

